X: 7511
T: Cobbler's Hornpipe, The
R: three-two
M: 3/2
K: Dminor
F4 D2EF GFED|E2C4 G2F2E2|F3G A2GF EFED|A,2 D4 F2E2D2:|
|:d4 def2 e2d2|e2c4 g2 f2e2|f3g a2gf efed|A2d4 f2e2d2:|

